X: 37038
T: Silver Birch, The
R: reel
M: 4/4
K: Gmajor
|:D|G2 BA GABc|d2 de dB B/B/B|e2 ed efge|dB B/B/B dBAB|
G2 BA GABc|d2 de dB B/B/B|e2 ed efge|1 dBAB G3:|2 dBAB G2||
|:ga|b3 c' bagb|abag agef|g3 f gfed|e/f/g fd edBd|
b3 c' bagb|abag agef|g2 fd e/f/g fe|1 dBAB G2:|2 dBAB G3||

